X:90
T: IN EINEM THAL BEI ARMEN HIRTEN
N: B0118
O: Europa, Mitteleuropa, Deutschland
R: Ballade, Romanze
M: 2/4
L: 1/16
K: G
DDD | G2G2B2B2 | d4B
DDD | G2B2d2BG | D4z
DDD | G2G2B2B2 | d4B
DDD | G2B2d2BG | D4z
ddd | dBBAGFEF | GBD3
ddd | c3AcBAG | d4-d
^c=cA | GGGGB3d | dEE3
EcA | GFGAB2A2 | G4z

@@@ Tune index: 1893
